X:0690
M:3/4
L:1/8
Q:3/4=50
K:G
d2 d2c2|B3c   d2|EA       c2 B>c|   BA`GF```````ED       |
d2 d2c2|B3c   d2|Ec```````BA`GF |[1 G2 G/D/E/F/ G/A/B/c/:|\
                                 [2 F4          G2      ||
E2 EGFA|G2 GB dg|f/e/d/c/ B2TA2 |[1 G2 B2       G2      :|\
                                 [2 c4          B2      |]

